X:747
T:The Munster buttermilk 1
T:Behind the haystack
T:Take her or leave her
T:Squeeze your thighs
R:Jig
O:Ireland
B:Bulmer and Sharpley
B:Kerr's First p 40
B:O'Neill's 893 (in G, Part C is 1st)
B:Ceol Rince 2 n29
S:My arrangement from various sources
Z:Transcription, arrangement, chords:Mike Long
M:6/8
L:1/8
K:D
A|\
"D"d2e fdB|d2e fdB|"A"AFE EFE|AFE E2A|\
"G"d2e fdB|d2e fdB|"D"AFD DED|AFD D2:|
|:A|\
"G"BcB BAF|"D"ABc dcB|"A"AFE EFE|AFE EFA|\
"G"BcB BAF|"A"ABc "G"dcB|"D"AFD DED|AFD D2:|
|:f|\
"G"gbg "D"faf|"A"ede "D"fdB|"A"AFE EFE|AFE E2f|\
"G"gbg "D"faf|"A"ede "G"fdB|"D"AFD DED|AFD D2:|
